src/assets/images/messager_instagram.svg

<svg fill="none" height="70" viewBox="0 0 71 70" width="71" xmlns="http://www.w3.org/2000/svg"><path d="m35.0245 28.8313c-1.22.0014-2.4122.3644-3.4259 1.0432s-1.8034 1.6429-2.2693 2.7705c-.4658 1.1275-.5869 2.3679-.348 3.5643.239 1.1963.8273 2.295 1.6905 3.1571.8633.862 1.9628 1.4488 3.1595 1.6861s2.4369.1145 3.5638-.3529 2.0899-1.2584 2.7673-2.2731c.6774-1.0146 1.0388-2.2074 1.0385-3.4274-.0023-1.6354-.6531-3.2031-1.8096-4.3594-1.1566-1.1562-2.7245-1.8066-4.36-1.8084zm0 0c-1.22.0014-2.4122.3644-3.4259 1.0432s-1.8034 1.6429-2.2693 2.7705c-.4658 1.1275-.5869 2.3679-.348 3.5643.239 1.1963.8273 2.295 1.6905 3.1571.8633.862 1.9628 1.4488 3.1595 1.6861s2.4369.1145 3.5638-.3529 2.0899-1.2584 2.7673-2.2731c.6774-1.0146 1.0388-2.2074 1.0385-3.4274-.0023-1.6354-.6531-3.2031-1.8096-4.3594-1.1566-1.1562-2.7245-1.8066-4.36-1.8084zm10.2769-10.0573h-20.552c-1.5794 0-3.0941.6274-4.2109 1.7442s-1.7442 2.6315-1.7442 4.2109v20.5469c0 1.5794.6274 3.0941 1.7442 4.2109s2.6315 1.7442 4.2109 1.7442h20.552c1.5794 0 3.0941-.6274 4.2109-1.7442s1.7442-2.6315 1.7442-4.2109v-20.552c0-1.5794-.6274-3.0941-1.7442-4.2109s-2.6315-1.7442-4.2109-1.7442zm-10.2769 26.9087c-2.113 0-4.1785-.6266-5.9354-1.8005-1.7569-1.174-3.1262-2.8425-3.9348-4.7946-.8086-1.9522-1.0202-4.1003-.608-6.1727s1.4297-3.976 2.9239-5.4701c1.4941-1.4941 3.3977-2.5116 5.4701-2.9239 2.0724-.4122 4.2205-.2006 6.1726.608 1.9522.8086 3.6207 2.1779 4.7947 3.9348 1.1739 1.7569 1.8004 3.8225 1.8004 5.9354-.0031 2.8325-1.1297 5.5481-3.1326 7.5509-2.0028 2.0029-4.7184 3.1295-7.5509 3.1327zm11.0272-19.1569c-.5001 0-.989-.1483-1.4048-.4262-.4159-.2779-.7399-.6729-.9312-1.135-.1914-.4621-.2413-.9705-.1436-1.461s.3386-.941.6924-1.2946c.3538-.3535.8045-.5942 1.295-.6915.4906-.0974.999-.0471 1.461.1445.462.1917.8567.516 1.1343.932.2777.416.4257.905.4253 1.4052-.0009.6701-.2676 1.3125-.7416 1.7862s-1.1166.74-1.7868.7404zm-11.0272 2.3055c-1.22.0014-2.4122.3644-3.4259 1.0432s-1.8034 1.6429-2.2693 2.7705c-.4658 1.1275-.5869 2.3679-.348 3.5643.239 1.1963.8273 2.295 1.6905 3.1571.8633.862 1.9628 1.4488 3.1595 1.6861s2.4369.1145 3.5638-.3529 2.0899-1.2584 2.7673-2.2731c.6774-1.0146 1.0388-2.2074 1.0385-3.4274-.0023-1.6354-.6531-3.2031-1.8096-4.3594-1.1566-1.1562-2.7245-1.8066-4.36-1.8084zm10.2769-10.0573h-20.552c-1.5794 0-3.0941.6274-4.2109 1.7442s-1.7442 2.6315-1.7442 4.2109v20.5469c0 1.5794.6274 3.0941 1.7442 4.2109s2.6315 1.7442 4.2109 1.7442h20.552c1.5794 0 3.0941-.6274 4.2109-1.7442s1.7442-2.6315 1.7442-4.2109v-20.552c0-1.5794-.6274-3.0941-1.7442-4.2109s-2.6315-1.7442-4.2109-1.7442zm-10.2769 26.9087c-2.113 0-4.1785-.6266-5.9354-1.8005-1.7569-1.174-3.1262-2.8425-3.9348-4.7946-.8086-1.9522-1.0202-4.1003-.608-6.1727s1.4297-3.976 2.9239-5.4701c1.4941-1.4941 3.3977-2.5116 5.4701-2.9239 2.0724-.4122 4.2205-.2006 6.1726.608 1.9522.8086 3.6207 2.1779 4.7947 3.9348 1.1739 1.7569 1.8004 3.8225 1.8004 5.9354-.0031 2.8325-1.1297 5.5481-3.1326 7.5509-2.0028 2.0029-4.7184 3.1295-7.5509 3.1327zm11.0272-19.1569c-.5001 0-.989-.1483-1.4048-.4262-.4159-.2779-.7399-.6729-.9312-1.135-.1914-.4621-.2413-.9705-.1436-1.461s.3386-.941.6924-1.2946c.3538-.3535.8045-.5942 1.295-.6915.4906-.0974.999-.0471 1.461.1445.462.1917.8567.516 1.1343.932.2777.416.4257.905.4253 1.4052-.0009.6701-.2676 1.3125-.7416 1.7862s-1.1166.74-1.7868.7404zm-11.0272 2.3055c-1.22.0014-2.4122.3644-3.4259 1.0432s-1.8034 1.6429-2.2693 2.7705c-.4658 1.1275-.5869 2.3679-.348 3.5643.239 1.1963.8273 2.295 1.6905 3.1571.8633.862 1.9628 1.4488 3.1595 1.6861s2.4369.1145 3.5638-.3529 2.0899-1.2584 2.7673-2.2731c.6774-1.0146 1.0388-2.2074 1.0385-3.4274-.0023-1.6354-.6531-3.2031-1.8096-4.3594-1.1566-1.1562-2.7245-1.8066-4.36-1.8084zm-34.9991094-28.8313v70h70.0000094v-70zm55.7400094 45.276c-.0027 2.7744-1.106 5.4344-3.0678 7.3962s-4.6218 3.0651-7.3962 3.0678h-20.552c-2.7744-.0027-5.4344-1.106-7.3962-3.0678s-3.0651-4.6218-3.0678-7.3962v-20.552c.0031-2.7743 1.1066-5.434 3.0683-7.3957s4.6214-3.0652 7.3957-3.0683h20.552c2.7744.0027 5.4344 1.106 7.3962 3.0678s3.0651 4.6218 3.0678 7.3962zm-10.464-26.502h-20.552c-1.5794 0-3.0941.6274-4.2109 1.7442s-1.7442 2.6315-1.7442 4.2109v20.5469c0 1.5794.6274 3.0941 1.7442 4.2109s2.6315 1.7442 4.2109 1.7442h20.552c1.5794 0 3.0941-.6274 4.2109-1.7442s1.7442-2.6315 1.7442-4.2109v-20.552c0-1.5794-.6274-3.0941-1.7442-4.2109s-2.6315-1.7442-4.2109-1.7442zm-10.2769 26.9087c-2.113 0-4.1785-.6266-5.9354-1.8005-1.7569-1.174-3.1262-2.8425-3.9348-4.7946-.8086-1.9522-1.0202-4.1003-.608-6.1727s1.4297-3.976 2.9239-5.4701c1.4941-1.4941 3.3977-2.5116 5.4701-2.9239 2.0724-.4122 4.2205-.2006 6.1726.608 1.9522.8086 3.6207 2.1779 4.7947 3.9348 1.1739 1.7569 1.8004 3.8225 1.8004 5.9354-.0031 2.8325-1.1297 5.5481-3.1326 7.5509-2.0028 2.0029-4.7184 3.1295-7.5509 3.1327zm11.0272-19.1569c-.5001 0-.989-.1483-1.4048-.4262-.4159-.2779-.7399-.6729-.9312-1.135-.1914-.4621-.2413-.9705-.1436-1.461s.3386-.941.6924-1.2946c.3538-.3535.8045-.5942 1.295-.6915.4906-.0974.999-.0471 1.461.1445.462.1917.8567.516 1.1343.932.2777.416.4257.905.4253 1.4052-.0009.6701-.2676 1.3125-.7416 1.7862s-1.1166.74-1.7868.7404zm-11.0272 2.3055c-1.22.0014-2.4122.3644-3.4259 1.0432s-1.8034 1.6429-2.2693 2.7705c-.4658 1.1275-.5869 2.3679-.348 3.5643.239 1.1963.8273 2.295 1.6905 3.1571.8633.862 1.9628 1.4488 3.1595 1.6861s2.4369.1145 3.5638-.3529 2.0899-1.2584 2.7673-2.2731c.6774-1.0146 1.0388-2.2074 1.0385-3.4274-.0023-1.6354-.6531-3.2031-1.8096-4.3594-1.1566-1.1562-2.7245-1.8066-4.36-1.8084zm0 0c-1.22.0014-2.4122.3644-3.4259 1.0432s-1.8034 1.6429-2.2693 2.7705c-.4658 1.1275-.5869 2.3679-.348 3.5643.239 1.1963.8273 2.295 1.6905 3.1571.8633.862 1.9628 1.4488 3.1595 1.6861s2.4369.1145 3.5638-.3529 2.0899-1.2584 2.7673-2.2731c.6774-1.0146 1.0388-2.2074 1.0385-3.4274-.0023-1.6354-.6531-3.2031-1.8096-4.3594-1.1566-1.1562-2.7245-1.8066-4.36-1.8084zm0 0c-1.22.0014-2.4122.3644-3.4259 1.0432s-1.8034 1.6429-2.2693 2.7705c-.4658 1.1275-.5869 2.3679-.348 3.5643.239 1.1963.8273 2.295 1.6905 3.1571.8633.862 1.9628 1.4488 3.1595 1.6861s2.4369.1145 3.5638-.3529 2.0899-1.2584 2.7673-2.2731c.6774-1.0146 1.0388-2.2074 1.0385-3.4274-.0023-1.6354-.6531-3.2031-1.8096-4.3594-1.1566-1.1562-2.7245-1.8066-4.36-1.8084zm10.2769-10.0573h-20.552c-1.5794 0-3.0941.6274-4.2109 1.7442s-1.7442 2.6315-1.7442 4.2109v20.5469c0 1.5794.6274 3.0941 1.7442 4.2109s2.6315 1.7442 4.2109 1.7442h20.552c1.5794 0 3.0941-.6274 4.2109-1.7442s1.7442-2.6315 1.7442-4.2109v-20.552c0-1.5794-.6274-3.0941-1.7442-4.2109s-2.6315-1.7442-4.2109-1.7442zm-10.2769 26.9087c-2.113 0-4.1785-.6266-5.9354-1.8005-1.7569-1.174-3.1262-2.8425-3.9348-4.7946-.8086-1.9522-1.0202-4.1003-.608-6.1727s1.4297-3.976 2.9239-5.4701c1.4941-1.4941 3.3977-2.5116 5.4701-2.9239 2.0724-.4122 4.2205-.2006 6.1726.608 1.9522.8086 3.6207 2.1779 4.7947 3.9348 1.1739 1.7569 1.8004 3.8225 1.8004 5.9354-.0031 2.8325-1.1297 5.5481-3.1326 7.5509-2.0028 2.0029-4.7184 3.1295-7.5509 3.1327zm11.0272-19.1569c-.5001 0-.989-.1483-1.4048-.4262-.4159-.2779-.7399-.6729-.9312-1.135-.1914-.4621-.2413-.9705-.1436-1.461s.3386-.941.6924-1.2946c.3538-.3535.8045-.5942 1.295-.6915.4906-.0974.999-.0471 1.461.1445.462.1917.8567.516 1.1343.932.2777.416.4257.905.4253 1.4052-.0009.6701-.2676 1.3125-.7416 1.7862s-1.1166.74-1.7868.7404zm-11.0272 2.3055c-1.22.0014-2.4122.3644-3.4259 1.0432s-1.8034 1.6429-2.2693 2.7705c-.4658 1.1275-.5869 2.3679-.348 3.5643.239 1.1963.8273 2.295 1.6905 3.1571.8633.862 1.9628 1.4488 3.1595 1.6861s2.4369.1145 3.5638-.3529 2.0899-1.2584 2.7673-2.2731c.6774-1.0146 1.0388-2.2074 1.0385-3.4274-.0023-1.6354-.6531-3.2031-1.8096-4.3594-1.1566-1.1562-2.7245-1.8066-4.36-1.8084zm0 0c-1.22.0014-2.4122.3644-3.4259 1.0432s-1.8034 1.6429-2.2693 2.7705c-.4658 1.1275-.5869 2.3679-.348 3.5643.239 1.1963.8273 2.295 1.6905 3.1571.8633.862 1.9628 1.4488 3.1595 1.6861s2.4369.1145 3.5638-.3529 2.0899-1.2584 2.7673-2.2731c.6774-1.0146 1.0388-2.2074 1.0385-3.4274-.0023-1.6354-.6531-3.2031-1.8096-4.3594-1.1566-1.1562-2.7245-1.8066-4.36-1.8084zm0 0c-1.22.0014-2.4122.3644-3.4259 1.0432s-1.8034 1.6429-2.2693 2.7705c-.4658 1.1275-.5869 2.3679-.348 3.5643.239 1.1963.8273 2.295 1.6905 3.1571.8633.862 1.9628 1.4488 3.1595 1.6861s2.4369.1145 3.5638-.3529 2.0899-1.2584 2.7673-2.2731c.6774-1.0146 1.0388-2.2074 1.0385-3.4274-.0023-1.6354-.6531-3.2031-1.8096-4.3594-1.1566-1.1562-2.7245-1.8066-4.36-1.8084zm10.2769-10.0573h-20.552c-1.5794 0-3.0941.6274-4.2109 1.7442s-1.7442 2.6315-1.7442 4.2109v20.5469c0 1.5794.6274 3.0941 1.7442 4.2109s2.6315 1.7442 4.2109 1.7442h20.552c1.5794 0 3.0941-.6274 4.2109-1.7442s1.7442-2.6315 1.7442-4.2109v-20.552c0-1.5794-.6274-3.0941-1.7442-4.2109s-2.6315-1.7442-4.2109-1.7442zm-10.2769 26.9087c-2.113 0-4.1785-.6266-5.9354-1.8005-1.7569-1.174-3.1262-2.8425-3.9348-4.7946-.8086-1.9522-1.0202-4.1003-.608-6.1727s1.4297-3.976 2.9239-5.4701c1.4941-1.4941 3.3977-2.5116 5.4701-2.9239 2.0724-.4122 4.2205-.2006 6.1726.608 1.9522.8086 3.6207 2.1779 4.7947 3.9348 1.1739 1.7569 1.8004 3.8225 1.8004 5.9354-.0031 2.8325-1.1297 5.5481-3.1326 7.5509-2.0028 2.0029-4.7184 3.1295-7.5509 3.1327zm11.0272-19.1569c-.5001 0-.989-.1483-1.4048-.4262-.4159-.2779-.7399-.6729-.9312-1.135-.1914-.4621-.2413-.9705-.1436-1.461s.3386-.941.6924-1.2946c.3538-.3535.8045-.5942 1.295-.6915.4906-.0974.999-.0471 1.461.1445.462.1917.8567.516 1.1343.932.2777.416.4257.905.4253 1.4052-.0009.6701-.2676 1.3125-.7416 1.7862s-1.1166.74-1.7868.7404zm-11.0272 2.3055c-1.22.0014-2.4122.3644-3.4259 1.0432s-1.8034 1.6429-2.2693 2.7705c-.4658 1.1275-.5869 2.3679-.348 3.5643.239 1.1963.8273 2.295 1.6905 3.1571.8633.862 1.9628 1.4488 3.1595 1.6861s2.4369.1145 3.5638-.3529 2.0899-1.2584 2.7673-2.2731c.6774-1.0146 1.0388-2.2074 1.0385-3.4274-.0023-1.6354-.6531-3.2031-1.8096-4.3594-1.1566-1.1562-2.7245-1.8066-4.36-1.8084z" fill="#c536a4"/></svg>

<svg width="71" height="70" viewBox="0 0 71 70" fill="none" xmlns="http://www.w3.org/2000/svg">
<path d="M35.0245 28.8313C33.8045 28.8327 32.6123 29.1957 31.5986 29.8745C30.5849 30.5533 29.7952 31.5174 29.3293 32.645C28.8635 33.7725 28.7424 35.0129 28.9813 36.2093C29.2203 37.4056 29.8086 38.5043 30.6718 39.3664C31.5351 40.2284 32.6346 40.8152 33.8313 41.0525C35.028 41.2898 36.2682 41.167 37.3951 40.6996C38.522 40.2322 39.485 39.4412 40.1624 38.4265C40.8398 37.4119 41.2012 36.2191 41.2009 34.9991C41.1986 33.3637 40.5478 31.796 39.3913 30.6397C38.2347 29.4835 36.6668 28.8331 35.0313 28.8313H35.0245ZM35.0245 28.8313C33.8045 28.8327 32.6123 29.1957 31.5986 29.8745C30.5849 30.5533 29.7952 31.5174 29.3293 32.645C28.8635 33.7725 28.7424 35.0129 28.9813 36.2093C29.2203 37.4056 29.8086 38.5043 30.6718 39.3664C31.5351 40.2284 32.6346 40.8152 33.8313 41.0525C35.028 41.2898 36.2682 41.167 37.3951 40.6996C38.522 40.2322 39.485 39.4412 40.1624 38.4265C40.8398 37.4119 41.2012 36.2191 41.2009 34.9991C41.1986 33.3637 40.5478 31.796 39.3913 30.6397C38.2347 29.4835 36.6668 28.8331 35.0313 28.8313H35.0245ZM45.3014 18.774H24.7494C23.17 18.774 21.6553 19.4014 20.5385 20.5182C19.4217 21.635 18.7943 23.1497 18.7943 24.7291V45.276C18.7943 46.8554 19.4217 48.3701 20.5385 49.4869C21.6553 50.6037 23.17 51.2311 24.7494 51.2311H45.3014C46.8808 51.2311 48.3955 50.6037 49.5123 49.4869C50.6291 48.3701 51.2565 46.8554 51.2565 45.276V24.724C51.2565 23.1446 50.6291 21.6299 49.5123 20.5131C48.3955 19.3963 46.8808 18.7689 45.3014 18.7689V18.774ZM35.0245 45.6827C32.9115 45.6827 30.846 45.0561 29.0891 43.8822C27.3322 42.7082 25.9629 41.0397 25.1543 39.0876C24.3457 37.1354 24.1341 34.9873 24.5463 32.9149C24.9585 30.8425 25.976 28.9389 27.4702 27.4448C28.9643 25.9507 30.8679 24.9332 32.9403 24.5209C35.0127 24.1087 37.1608 24.3203 39.1129 25.1289C41.0651 25.9375 42.7336 27.3068 43.9076 29.0637C45.0815 30.8206 45.708 32.8862 45.708 34.9991C45.7049 37.8316 44.5783 40.5472 42.5754 42.55C40.5726 44.5529 37.857 45.6795 35.0245 45.6827ZM46.0517 26.5258C45.5516 26.5258 45.0627 26.3775 44.6469 26.0996C44.231 25.8217 43.907 25.4267 43.7157 24.9646C43.5243 24.5025 43.4744 23.9941 43.5721 23.5036C43.6698 23.0131 43.9107 22.5626 44.2645 22.209C44.6183 21.8555 45.069 21.6148 45.5595 21.5175C46.0501 21.4201 46.5585 21.4704 47.0205 21.662C47.4825 21.8537 47.8772 22.178 48.1548 22.594C48.4325 23.01 48.5805 23.499 48.5801 23.9992C48.5792 24.6693 48.3125 25.3117 47.8385 25.7854C47.3645 26.2591 46.7219 26.5254 46.0517 26.5258ZM35.0245 28.8313C33.8045 28.8327 32.6123 29.1957 31.5986 29.8745C30.5849 30.5533 29.7952 31.5174 29.3293 32.645C28.8635 33.7725 28.7424 35.0129 28.9813 36.2093C29.2203 37.4056 29.8086 38.5043 30.6718 39.3664C31.5351 40.2284 32.6346 40.8152 33.8313 41.0525C35.028 41.2898 36.2682 41.167 37.3951 40.6996C38.522 40.2322 39.485 39.4412 40.1624 38.4265C40.8398 37.4119 41.2012 36.2191 41.2009 34.9991C41.1986 33.3637 40.5478 31.796 39.3913 30.6397C38.2347 29.4835 36.6668 28.8331 35.0313 28.8313H35.0245ZM45.3014 18.774H24.7494C23.17 18.774 21.6553 19.4014 20.5385 20.5182C19.4217 21.635 18.7943 23.1497 18.7943 24.7291V45.276C18.7943 46.8554 19.4217 48.3701 20.5385 49.4869C21.6553 50.6037 23.17 51.2311 24.7494 51.2311H45.3014C46.8808 51.2311 48.3955 50.6037 49.5123 49.4869C50.6291 48.3701 51.2565 46.8554 51.2565 45.276V24.724C51.2565 23.1446 50.6291 21.6299 49.5123 20.5131C48.3955 19.3963 46.8808 18.7689 45.3014 18.7689V18.774ZM35.0245 45.6827C32.9115 45.6827 30.846 45.0561 29.0891 43.8822C27.3322 42.7082 25.9629 41.0397 25.1543 39.0876C24.3457 37.1354 24.1341 34.9873 24.5463 32.9149C24.9585 30.8425 25.976 28.9389 27.4702 27.4448C28.9643 25.9507 30.8679 24.9332 32.9403 24.5209C35.0127 24.1087 37.1608 24.3203 39.1129 25.1289C41.0651 25.9375 42.7336 27.3068 43.9076 29.0637C45.0815 30.8206 45.708 32.8862 45.708 34.9991C45.7049 37.8316 44.5783 40.5472 42.5754 42.55C40.5726 44.5529 37.857 45.6795 35.0245 45.6827ZM46.0517 26.5258C45.5516 26.5258 45.0627 26.3775 44.6469 26.0996C44.231 25.8217 43.907 25.4267 43.7157 24.9646C43.5243 24.5025 43.4744 23.9941 43.5721 23.5036C43.6698 23.0131 43.9107 22.5626 44.2645 22.209C44.6183 21.8555 45.069 21.6148 45.5595 21.5175C46.0501 21.4201 46.5585 21.4704 47.0205 21.662C47.4825 21.8537 47.8772 22.178 48.1548 22.594C48.4325 23.01 48.5805 23.499 48.5801 23.9992C48.5792 24.6693 48.3125 25.3117 47.8385 25.7854C47.3645 26.2591 46.7219 26.5254 46.0517 26.5258ZM35.0245 28.8313C33.8045 28.8327 32.6123 29.1957 31.5986 29.8745C30.5849 30.5533 29.7952 31.5174 29.3293 32.645C28.8635 33.7725 28.7424 35.0129 28.9813 36.2093C29.2203 37.4056 29.8086 38.5043 30.6718 39.3664C31.5351 40.2284 32.6346 40.8152 33.8313 41.0525C35.028 41.2898 36.2682 41.167 37.3951 40.6996C38.522 40.2322 39.485 39.4412 40.1624 38.4265C40.8398 37.4119 41.2012 36.2191 41.2009 34.9991C41.1986 33.3637 40.5478 31.796 39.3913 30.6397C38.2347 29.4835 36.6668 28.8331 35.0313 28.8313H35.0245ZM0.0253906 0V70H70.0254V0H0.0253906ZM55.7654 45.276C55.7627 48.0504 54.6594 50.7104 52.6976 52.6722C50.7358 54.634 48.0758 55.7373 45.3014 55.74H24.7494C21.975 55.7373 19.315 54.634 17.3532 52.6722C15.3914 50.7104 14.2881 48.0504 14.2854 45.276V24.724C14.2885 21.9497 15.392 19.29 17.3537 17.3283C19.3154 15.3666 21.9751 14.2631 24.7494 14.26H45.3014C48.0758 14.2627 50.7358 15.366 52.6976 17.3278C54.6594 19.2896 55.7627 21.9496 55.7654 24.724V45.276ZM45.3014 18.774H24.7494C23.17 18.774 21.6553 19.4014 20.5385 20.5182C19.4217 21.635 18.7943 23.1497 18.7943 24.7291V45.276C18.7943 46.8554 19.4217 48.3701 20.5385 49.4869C21.6553 50.6037 23.17 51.2311 24.7494 51.2311H45.3014C46.8808 51.2311 48.3955 50.6037 49.5123 49.4869C50.6291 48.3701 51.2565 46.8554 51.2565 45.276V24.724C51.2565 23.1446 50.6291 21.6299 49.5123 20.5131C48.3955 19.3963 46.8808 18.7689 45.3014 18.7689V18.774ZM35.0245 45.6827C32.9115 45.6827 30.846 45.0561 29.0891 43.8822C27.3322 42.7082 25.9629 41.0397 25.1543 39.0876C24.3457 37.1354 24.1341 34.9873 24.5463 32.9149C24.9585 30.8425 25.976 28.9389 27.4702 27.4448C28.9643 25.9507 30.8679 24.9332 32.9403 24.5209C35.0127 24.1087 37.1608 24.3203 39.1129 25.1289C41.0651 25.9375 42.7336 27.3068 43.9076 29.0637C45.0815 30.8206 45.708 32.8862 45.708 34.9991C45.7049 37.8316 44.5783 40.5472 42.5754 42.55C40.5726 44.5529 37.857 45.6795 35.0245 45.6827ZM46.0517 26.5258C45.5516 26.5258 45.0627 26.3775 44.6469 26.0996C44.231 25.8217 43.907 25.4267 43.7157 24.9646C43.5243 24.5025 43.4744 23.9941 43.5721 23.5036C43.6698 23.0131 43.9107 22.5626 44.2645 22.209C44.6183 21.8555 45.069 21.6148 45.5595 21.5175C46.0501 21.4201 46.5585 21.4704 47.0205 21.662C47.4825 21.8537 47.8772 22.178 48.1548 22.594C48.4325 23.01 48.5805 23.499 48.5801 23.9992C48.5792 24.6693 48.3125 25.3117 47.8385 25.7854C47.3645 26.2591 46.7219 26.5254 46.0517 26.5258ZM35.0245 28.8313C33.8045 28.8327 32.6123 29.1957 31.5986 29.8745C30.5849 30.5533 29.7952 31.5174 29.3293 32.645C28.8635 33.7725 28.7424 35.0129 28.9813 36.2093C29.2203 37.4056 29.8086 38.5043 30.6718 39.3664C31.5351 40.2284 32.6346 40.8152 33.8313 41.0525C35.028 41.2898 36.2682 41.167 37.3951 40.6996C38.522 40.2322 39.485 39.4412 40.1624 38.4265C40.8398 37.4119 41.2012 36.2191 41.2009 34.9991C41.1986 33.3637 40.5478 31.796 39.3913 30.6397C38.2347 29.4835 36.6668 28.8331 35.0313 28.8313H35.0245ZM35.0245 28.8313C33.8045 28.8327 32.6123 29.1957 31.5986 29.8745C30.5849 30.5533 29.7952 31.5174 29.3293 32.645C28.8635 33.7725 28.7424 35.0129 28.9813 36.2093C29.2203 37.4056 29.8086 38.5043 30.6718 39.3664C31.5351 40.2284 32.6346 40.8152 33.8313 41.0525C35.028 41.2898 36.2682 41.167 37.3951 40.6996C38.522 40.2322 39.485 39.4412 40.1624 38.4265C40.8398 37.4119 41.2012 36.2191 41.2009 34.9991C41.1986 33.3637 40.5478 31.796 39.3913 30.6397C38.2347 29.4835 36.6668 28.8331 35.0313 28.8313H35.0245ZM35.0245 28.8313C33.8045 28.8327 32.6123 29.1957 31.5986 29.8745C30.5849 30.5533 29.7952 31.5174 29.3293 32.645C28.8635 33.7725 28.7424 35.0129 28.9813 36.2093C29.2203 37.4056 29.8086 38.5043 30.6718 39.3664C31.5351 40.2284 32.6346 40.8152 33.8313 41.0525C35.028 41.2898 36.2682 41.167 37.3951 40.6996C38.522 40.2322 39.485 39.4412 40.1624 38.4265C40.8398 37.4119 41.2012 36.2191 41.2009 34.9991C41.1986 33.3637 40.5478 31.796 39.3913 30.6397C38.2347 29.4835 36.6668 28.8331 35.0313 28.8313H35.0245ZM45.3014 18.774H24.7494C23.17 18.774 21.6553 19.4014 20.5385 20.5182C19.4217 21.635 18.7943 23.1497 18.7943 24.7291V45.276C18.7943 46.8554 19.4217 48.3701 20.5385 49.4869C21.6553 50.6037 23.17 51.2311 24.7494 51.2311H45.3014C46.8808 51.2311 48.3955 50.6037 49.5123 49.4869C50.6291 48.3701 51.2565 46.8554 51.2565 45.276V24.724C51.2565 23.1446 50.6291 21.6299 49.5123 20.5131C48.3955 19.3963 46.8808 18.7689 45.3014 18.7689V18.774ZM35.0245 45.6827C32.9115 45.6827 30.846 45.0561 29.0891 43.8822C27.3322 42.7082 25.9629 41.0397 25.1543 39.0876C24.3457 37.1354 24.1341 34.9873 24.5463 32.9149C24.9585 30.8425 25.976 28.9389 27.4702 27.4448C28.9643 25.9507 30.8679 24.9332 32.9403 24.5209C35.0127 24.1087 37.1608 24.3203 39.1129 25.1289C41.0651 25.9375 42.7336 27.3068 43.9076 29.0637C45.0815 30.8206 45.708 32.8862 45.708 34.9991C45.7049 37.8316 44.5783 40.5472 42.5754 42.55C40.5726 44.5529 37.857 45.6795 35.0245 45.6827ZM46.0517 26.5258C45.5516 26.5258 45.0627 26.3775 44.6469 26.0996C44.231 25.8217 43.907 25.4267 43.7157 24.9646C43.5243 24.5025 43.4744 23.9941 43.5721 23.5036C43.6698 23.0131 43.9107 22.5626 44.2645 22.209C44.6183 21.8555 45.069 21.6148 45.5595 21.5175C46.0501 21.4201 46.5585 21.4704 47.0205 21.662C47.4825 21.8537 47.8772 22.178 48.1548 22.594C48.4325 23.01 48.5805 23.499 48.5801 23.9992C48.5792 24.6693 48.3125 25.3117 47.8385 25.7854C47.3645 26.2591 46.7219 26.5254 46.0517 26.5258ZM35.0245 28.8313C33.8045 28.8327 32.6123 29.1957 31.5986 29.8745C30.5849 30.5533 29.7952 31.5174 29.3293 32.645C28.8635 33.7725 28.7424 35.0129 28.9813 36.2093C29.2203 37.4056 29.8086 38.5043 30.6718 39.3664C31.5351 40.2284 32.6346 40.8152 33.8313 41.0525C35.028 41.2898 36.2682 41.167 37.3951 40.6996C38.522 40.2322 39.485 39.4412 40.1624 38.4265C40.8398 37.4119 41.2012 36.2191 41.2009 34.9991C41.1986 33.3637 40.5478 31.796 39.3913 30.6397C38.2347 29.4835 36.6668 28.8331 35.0313 28.8313H35.0245ZM35.0245 28.8313C33.8045 28.8327 32.6123 29.1957 31.5986 29.8745C30.5849 30.5533 29.7952 31.5174 29.3293 32.645C28.8635 33.7725 28.7424 35.0129 28.9813 36.2093C29.2203 37.4056 29.8086 38.5043 30.6718 39.3664C31.5351 40.2284 32.6346 40.8152 33.8313 41.0525C35.028 41.2898 36.2682 41.167 37.3951 40.6996C38.522 40.2322 39.485 39.4412 40.1624 38.4265C40.8398 37.4119 41.2012 36.2191 41.2009 34.9991C41.1986 33.3637 40.5478 31.796 39.3913 30.6397C38.2347 29.4835 36.6668 28.8331 35.0313 28.8313H35.0245ZM35.0245 28.8313C33.8045 28.8327 32.6123 29.1957 31.5986 29.8745C30.5849 30.5533 29.7952 31.5174 29.3293 32.645C28.8635 33.7725 28.7424 35.0129 28.9813 36.2093C29.2203 37.4056 29.8086 38.5043 30.6718 39.3664C31.5351 40.2284 32.6346 40.8152 33.8313 41.0525C35.028 41.2898 36.2682 41.167 37.3951 40.6996C38.522 40.2322 39.485 39.4412 40.1624 38.4265C40.8398 37.4119 41.2012 36.2191 41.2009 34.9991C41.1986 33.3637 40.5478 31.796 39.3913 30.6397C38.2347 29.4835 36.6668 28.8331 35.0313 28.8313H35.0245ZM45.3014 18.774H24.7494C23.17 18.774 21.6553 19.4014 20.5385 20.5182C19.4217 21.635 18.7943 23.1497 18.7943 24.7291V45.276C18.7943 46.8554 19.4217 48.3701 20.5385 49.4869C21.6553 50.6037 23.17 51.2311 24.7494 51.2311H45.3014C46.8808 51.2311 48.3955 50.6037 49.5123 49.4869C50.6291 48.3701 51.2565 46.8554 51.2565 45.276V24.724C51.2565 23.1446 50.6291 21.6299 49.5123 20.5131C48.3955 19.3963 46.8808 18.7689 45.3014 18.7689V18.774ZM35.0245 45.6827C32.9115 45.6827 30.846 45.0561 29.0891 43.8822C27.3322 42.7082 25.9629 41.0397 25.1543 39.0876C24.3457 37.1354 24.1341 34.9873 24.5463 32.9149C24.9585 30.8425 25.976 28.9389 27.4702 27.4448C28.9643 25.9507 30.8679 24.9332 32.9403 24.5209C35.0127 24.1087 37.1608 24.3203 39.1129 25.1289C41.0651 25.9375 42.7336 27.3068 43.9076 29.0637C45.0815 30.8206 45.708 32.8862 45.708 34.9991C45.7049 37.8316 44.5783 40.5472 42.5754 42.55C40.5726 44.5529 37.857 45.6795 35.0245 45.6827ZM46.0517 26.5258C45.5516 26.5258 45.0627 26.3775 44.6469 26.0996C44.231 25.8217 43.907 25.4267 43.7157 24.9646C43.5243 24.5025 43.4744 23.9941 43.5721 23.5036C43.6698 23.0131 43.9107 22.5626 44.2645 22.209C44.6183 21.8555 45.069 21.6148 45.5595 21.5175C46.0501 21.4201 46.5585 21.4704 47.0205 21.662C47.4825 21.8537 47.8772 22.178 48.1548 22.594C48.4325 23.01 48.5805 23.499 48.5801 23.9992C48.5792 24.6693 48.3125 25.3117 47.8385 25.7854C47.3645 26.2591 46.7219 26.5254 46.0517 26.5258ZM35.0245 28.8313C33.8045 28.8327 32.6123 29.1957 31.5986 29.8745C30.5849 30.5533 29.7952 31.5174 29.3293 32.645C28.8635 33.7725 28.7424 35.0129 28.9813 36.2093C29.2203 37.4056 29.8086 38.5043 30.6718 39.3664C31.5351 40.2284 32.6346 40.8152 33.8313 41.0525C35.028 41.2898 36.2682 41.167 37.3951 40.6996C38.522 40.2322 39.485 39.4412 40.1624 38.4265C40.8398 37.4119 41.2012 36.2191 41.2009 34.9991C41.1986 33.3637 40.5478 31.796 39.3913 30.6397C38.2347 29.4835 36.6668 28.8331 35.0313 28.8313H35.0245Z" fill="#C536A4"/>
</svg>
